!!!!SEGMENT: pl-wnifc--2714-n--002_nowakowski-jozef--12-etudes-op-25-2-allegro-vivace.krn
!!!cenid: 18xx:3900
!!!COM: Nowakowski, Józef
!!!COM-rismID: pe175316
!!!CDT: 1880/09/16-1865/08/27
!!!CNT: Polish
!!!GTL: 12 Etudes op. 25
!!!OTL: 2. Allegro vivace
!!!PDT:
!!!AGN:
!!!SMS-siglum: PL-Wnifc
!!!SMS-shelfmark: 2714/n
!!!SMS-shelfwork: 002 G
!!!SMS-variant:
!!!SMS-altvar:
!!!NIFC-rismSourceID: 1001141176
!!!NIFC-islandoraID: nifc:211989
!!!URL-pdf-islandora: https://repozytorium.nifc.pl/islandora/object/nifc%3A211989/datastream/PDF/view
!!!URL-scan: https://polish.musicsources.pl/pl/lokalizacje/galeria/druki-muzyczne/16821 @EN{Scan on Polish Music Sources Website} @PL{Skany w portalu Dziedzictwo Muzyki Polskiej w otwartym dostępie}
!!!ONB-nifc: UWAGA: w zbiorze znajdują się 3 Etiudy: 1. Moderato, 2. Allegro vivace, 3. Moderato
!!!AIN: 1 piano
!!!key: A
**kern	**fing	**kern	**fing	**dynam
*part2	*	*part1	*	*part1
*staff2	*	*staff1	*	*
*I"Piano	*	*I"Piano	*	*
*I'P-no	*	*I'P-no	*	*
*ICklav	*	*	*	*
*Ipiano	*	*	*	*
*clefF4	*	*clefG2	*	*
*k[f#c#g#]	*	*k[f#c#g#]	*	*
*A:	*	*A:	*	*
*M4/4	*	*M4/4	*	*
*met(c)	*	*met(c)	*	*
!	!	!LO:TX:a:t=Allegro vivace	!	!
8r	.	(8cc#\	3	p
=1	=1	=1	=1	=1
*^	*	*	*	*
4r	[1FF#	.	12b#X\L	.	.
.	.	.	12cc#\	.	.
.	.	.	12dd\J	.	.
(4C#/	.	3	12cc#\L	.	.
.	.	.	12bn\	.	.
.	.	.	12a\J	.	.
4F#/	.	1	12g#/L	3	.
.	.	.	12b/	5	.
.	.	.	12a/J	.	.
4G#/	.	1	12g#/L	.	.
.	.	.	12a/	.	.
.	.	.	12e#X/J	1	.
=2	=2	=2	=2	=2	=2
2A/	1FF#]	1	12f#/L	2	<
.	.	.	12g#/	.	.
.	.	.	12f#/J	.	.
.	.	.	12e#X/L	.	.
.	.	.	12f#/	.	.
.	.	.	12g#/J	.	.
2F#/)	.	2	12a/L	1	.
.	.	.	12a#X/	3	.
.	.	.	12b/J	1	.
.	.	.	12b#X\L	2	.
.	.	.	12cc#\	3	.
.	.	.	12ff#\J	5	[[
=3	=3	=3	=3	=3	=3
.	8qFF#\	2	.	.	.
(4B/	[1F#	4	12ee\L	4	.
.	.	.	12dd\	.	.
.	.	.	12cc#\J	.	.
4d/	.	1	12dd\L	1	.
.	.	.	12dd#X\	3	.
.	.	.	12ee\J	1	.
4c#/	.	2	12ee#X\L	2	.
.	.	.	12gg#\	4	.
.	.	.	12ff#\J	3	.
4B/	.	1	12ee#\L	.	.
.	.	.	12ff#\	.	.
.	.	.	12ddn\J	1	.
!!LO:LB:g=original
=4	=4	=4	=4	=4	=4
1A)	(2F#\]	.	12cc#\L	2	>
.	.	.	12b#X\	1	.
.	.	.	12cc#\J	.	.
.	.	.	12aa\L	5	.
.	.	.	12gg#\	4	.
.	.	.	12ff#\J	3	.
.	2C#\)	.	12cc#\L	2	.
.	.	.	12ccn\	1	.
.	.	.	12bn\J	5	.
.	.	.	12a/L	4	.
.	.	.	12g#/	.	.
.	.	.	12f#/J	.	]]
=5	=5	=5	=5	=5	=5
*ped	*	*	*	*	*
8CC#/	4ryy	.	(12e#X/L)	1	.
.	.	.	12dd/	4	.
8r	.	.	.	.	.
.	.	.	12cc#/J	3	.
(4G#/	4C#\	.	12b#X\L	1	.
.	.	.	12dd\	3	.
.	.	.	12cc#\J	.	.
4c#/	2E#X\	.	12gg#\L	5	.
.	.	.	12b#\	.	.
.	.	.	12cc#\J	.	.
4Bn/	.	.	12een\L	4	.
*Xped	*	*	*	*	*
.	.	.	12dd\	.	.
.	.	.	12cc#\J	.	.
=6	=6	=6	=6	=6	=6
2A/	1FF#	.	12f#\L	1	.
.	.	.	12cc#\	2	.
.	.	.	12ee\J	4	.
.	.	.	12dd\L	.	.
.	.	.	12cc#\	.	.
.	.	.	12b#X\J	.	.
4AA/)	.	.	12cc#\L	2	.
.	.	.	12aa\	5	.
.	.	.	12gg#\J	4	.
(4C#/	.	.	12ff#\L	3	.
.	.	.	12cc#\	2	.
.	.	.	12a\J	1	.
!!LO:LB:g=original
=7	=7	=7	=7	=7	=7
!	!	!	!LO:TX:t=:dwie szesnastki zapisane jako przednutki (16qqg# 16qqg)	!	!
4E/	2.GG#\	.	12g#/L	.	<
.	.	.	12f##X/	1	.
.	.	.	12g#/J	2	.
4G#/	.	.	12ee\L	5	.
.	.	.	12dd#X\	.	.
.	.	.	12cc#\J	.	.
2F#X/	.	.	12b#X\L	1	.
.	.	.	12aa\	5	.
.	.	.	12gg#\J	.	.
.	4BB#X\	.	12ff#nX\L	.	.
.	.	.	12dd#\	2	.
.	.	.	12ee\J	4	[[
=8	=8	=8	=8	=8	=8
4E/)	4C#\	.	12cc#\L	2	.
.	.	.	12b#X\	.	>
.	.	.	12dd#X\J	.	.
4r	4ryy	.	12cc#\L	.	.
.	.	.	12b#\	.	.
.	.	.	12dd#\J	.	.
2r	2ryy	.	12cc#\L	.	.
.	.	.	12b#\	.	.
.	.	.	12ddn\J	.	.
.	.	.	12cc#\L	.	.
.	.	.	12b#\	.	.
.	.	.	(12dd\J)	4	]]
=9	=9	=9	=9	=9	=9
4r	[1FF#	.	12b#X\L	2	.
.	.	.	12cc#\	.	.
.	.	.	12dd\J	.	.
4C#/	.	.	12cc#\L	.	.
.	.	.	12bn\	.	.
.	.	.	12a\J	.	.
4F#/	.	.	12g#/L	.	.
.	.	.	12b/	.	.
.	.	.	12a/J	.	.
4G#/	.	.	12g#/L	.	.
.	.	.	12a/	.	.
.	.	.	12e#X/J	.	.
!!LO:LB:g=original
=10	=10	=10	=10	=10	=10
2A/	1FF#]	.	12f#/L	.	.
.	.	.	12g#/	.	.
.	.	.	12f#/J	.	.
.	.	.	12e#X/L	.	.
.	.	.	12f#/	.	.
.	.	.	12g#/J	.	.
2F#/	.	.	12a/L	.	<
.	.	.	12a#X/	.	.
.	.	.	12b/J	.	.
.	.	.	12b#X\L	.	.
.	.	.	12cc#\	.	.
.	.	.	12ff#\J	.	[[
=11	=11	=11	=11	=11	=11
2B/	4GG#\	.	12een\L	1	.
.	.	.	12ccc#\	4	.
.	.	.	12bb\J	3	.
.	4E\	.	12gg#\L	2	.
.	.	.	12ee\	1	.
.	.	.	12dd#X\J	2	.
2G#/	4BB\	.	12ddn\L	1	.
.	.	.	12ccc#\	4	.
.	.	.	12bb\J	.	.
.	4E\	.	12gg#\L	.	.
.	.	.	12ee\	.	.
.	.	.	12dd\J	3	.
=12	=12	=12	=12	=12	=12
1A	4AA\	.	12cc#\L	2	.
.	.	.	12aa\	5	.
.	.	.	12ff#\J	4	>
.	4C#\	.	12ee\L	3	.
.	.	.	12dd#X\	2	.
.	.	.	12ddn\J	1	.
.	4E\	.	12cc#\L	2	.
.	.	.	12ff#\	4	.
.	.	.	12ee\J	3	.
.	4C#\	.	12cc#/L	2	.
.	.	.	12a/	1	.
.	.	.	12g#/J	3	]]
!!LO:LB:g=original
=13	=13	=13	=13	=13	=13
4A#X/	1D	.	12gn/L)	1	.
.	.	.	(12f#/	2	.
.	.	.	12e#X/J	1	.
4B/	.	.	12f#/L	2	.
.	.	.	12a#X/	3	.
.	.	.	12cc#/J	4	.
4d/	.	.	12b\L	1	.
.	.	.	12ee#X\	2	.
.	.	.	12gg#X\J	4	.
4B/	.	.	12ff#\L	3	.
.	.	.	12dd\	2	.
.	.	.	12b\J	1	.
=14	=14	=14	=14	=14	=14
4c#/	1E	.	12an\L	2	.
.	.	.	12a\	1	.
.	.	.	12dd\J	3	.
4e/	.	.	12cc#\L	2	<
.	.	.	12ff#\	4	.
.	.	.	12ee\J	1	.
4c#/	.	.	12aa\L	3	.
.	.	.	12gg#\	2	.
.	.	.	12bb\J	4	.
4A/	.	.	12aa\L	1	.
.	.	.	12ddd\	4	.
.	.	.	12ccc#\J	.	[[
=15	=15	=15	=15	=15	=15
*ped	*	*	*	*	*
8EE/	2ryy	.	12eee\L	5	f
.	.	.	12ddd\	.	>
8r	.	.	.	.	.
.	.	.	12bb\J	.	.
(2.D^^\	.	.	12gg#\L	.	.
.	.	.	12ee\	1	.
.	.	.	12ee#X\J	2	.
.	(4c#\	.	12gg#\L	4	.
.	.	.	12ff#\	3	.
.	.	.	12dd\J	2	.
.	4B\	.	12b\L	1	.
.	.	.	12g#\	2	.
.	.	.	12een\J	5	]]
*Xped	*	*	*	*	*
!!LO:LB:g=original
=16	=16	=16	=16	=16	=16
4C# 4AA\)	4A/)	.	(12a/L)	1	p
.	.	.	12b/	4	.
.	.	.	12a/J	3	.
4r	4ryy	.	12g#/L	2	<
.	.	.	12a/	1	.
.	.	.	12a#X/J	.	.
2r	2ryy	.	12b\L	.	.
.	.	.	12b#X\	.	.
.	.	.	12cc#\J	.	.
.	.	.	12dd\L	.	.
.	.	.	12dd#X\	2	.
.	.	.	12ff#\J	4	[[
*v	*v	*	*	*	*
=17	=17	=17	=17	=17
(8qAAA/	.	.	.	.
*ped	*	*	*	*
(4C#/)	1	(12ee\L)	.	.
.	.	12dd#X\	.	.
.	.	12ff#\J	.	.
4E\	2	12ee\L	.	.
.	.	12b#X\	1	.
.	.	12cc#\J	3	.
4A 4C#\	.	12ee\L	5	.
.	.	12g#\	2	.
.	.	12a\J	1	.
4E\)	.	12cc#\L	4	.
.	.	12bn\	3	.
.	.	12a\J	1	.
*Xped	*	*	*	*
=18	=18	=18	=18	=18
*^	*	*	*	*
(2Fn^/	2.BB\	.	12a/L	5	.
.	.	.	12c#/	2	.
.	.	.	12d/J	1	.
.	.	.	12d#X/L	2	.
.	.	.	12b/	5	.
.	.	.	12a/J	4	.
2E/)	.	.	(12g#\L)	3	.
.	.	.	12b\	1	.
.	.	.	12dd#X\J	2	.
.	4GG#\	.	12ee\L	3	.
.	.	.	12bb\	.	.
.	.	.	12b\J	.	.
*v	*v	*	*	*	*
!!LO:PB:g=original
=19	=19	=19	=19	=19
*ped	*	*	*	*
8EE/	.	12ff#\L	3	.
.	.	12ee#X\	.	.
8r	.	.	.	.
.	.	12gg#\J	.	.
4E\	2	12ff#\L	.	.
.	.	12b#X\	1	.
.	.	12cc#\J	3	.
4B 4D\	.	12een\L	5	.
.	.	12dd\	4	.
.	.	12a#X\J	2	.
4E\	.	12bn\L	3	.
.	.	12dd\	5	.
.	.	12g#\J	2	.
*Xped	*	*	*	*
=20	=20	=20	=20	=20
*^	*	*	*	*
(2Fn^/	1AA	.	12b/L	4	.
.	.	.	12f##X/	1	.
.	.	.	12g#/J	2	.
.	.	.	12cc#/L	5	.
.	.	.	12b/	4	.
.	.	.	12dn/J	1	.
2E/)	.	.	12aL 12c#/	5 2	.
.	.	.	(12B#X/)	.	.
.	.	.	12c#/J	.	.
.	.	.	12e/L	3	.
.	.	.	12g#/	4	.
.	.	.	12a/J	1	.
*v	*v	*	*	*	*
=21	=21	=21	=21	=21
(8qGG#/	.	.	.	.
(4c# 4E#X^/)	1 2	12cc#\L	.	.
.	.	12dd\	.	.
.	.	12cc#\J	.	.
4B 4Dn/	1 3	12b#X\L	1	.
.	.	12cc#\	2	.
.	.	12ee#X\J	3	.
4A 4C#/	1 4	12ccc#\L	5	.
.	.	12b#\	.	.
.	.	12cc#\J	.	.
4G# 4BB/	2 5	12een\L	4	.
.	.	12dd#X\	3	.
.	.	12ddn\J	1	.
!!LO:LB:g=original
=22	=22	=22	=22	=22
*^	*	*	*	*
2A/	4FF#\	.	12cc#\L	2	.
.	.	.	12ddn\	.	.
.	.	.	12cc#\J	.	.
.	4C#\	.	12b#X\L	.	.
.	.	.	12cc#\	2	.
.	.	.	12ff#\J	3	.
2F#/)	4AA\	.	12ccc#\L)	5	.
.	.	.	(12b#\	.	.
.	.	.	12cc#\J	.	.
.	4C#\	.	12ee\L	.	.
.	.	.	12ddn\	.	.
.	.	.	12cc#\J	.	.
*v	*v	*	*	*	*
=23	=23	=23	=23	=23
(8qFF#/	.	.	.	.
(4B 4D#X^\)	.	12bn\L	1	.
.	.	12cc#\	4	.
.	.	12b\J	3	.
4A 4C#\	.	12a#X\L	2	.
.	.	12b\	1	.
.	.	12ff#\J	.	.
4G# 4BB\	.	12bb\L	.	.
.	.	12b\	.	.
.	.	12b#X\J	2	.
4F# 4AA/	.	12ddn\L	4	.
.	.	12cc#\	.	.
.	.	12ccn\J	.	.
=24	=24	=24	=24	=24
*^	*	*	*	*
2G#/	4EE\	.	12b\L	1	.
.	.	.	12ccn\	4	.
.	.	.	12b\J	.	.
.	4BB\	.	12a#X\L	.	.
.	.	.	12b\	1	.
.	.	.	12gg#\J	.	.
2E/)	4GG#\	.	(12ee\L)	.	.
.	.	.	12b\	1	.
.	.	.	12g#\J	3	.
.	4BB\	.	12e/L	.	.
.	.	.	12f#/	.	.
.	.	.	12f##X/J	.	.
*v	*v	*	*	*	*
!!LO:LB:g=original
=25	=25	=25	=25	=25
((8qDD#X/	.	.	.	.
4G# 4BB#X^/)	.	12g#/L	2	.
.	.	12a/	.	.
.	.	12g#/J	.	.
4F# 4AA/	.	12f##X/L	1	.
.	.	12g#/	2	.
.	.	12b#X/J	3	.
4E 4GG#/	.	12gg#\L	5	.
.	.	12f##\	.	.
.	.	12g#\J	.	.
4D#X 4FF#/	.	12bn/L	4	.
.	.	12a#X/	3	.
.	.	12an/J	1	.
=26	=26	=26	=26	=26
*^	*	*	*	*
2E/	4CC#\	.	12g#/L	2	.
.	.	.	12a/	.	.
.	.	.	12g#/J	.	.
.	4GG#\	.	12f##X/L	.	.
.	.	.	12g#/	.	.
.	.	.	12cc#/J	.	.
2C#/)	4EE\	.	12gg#\L)	.	.
.	.	.	(12f##\	.	.
.	.	.	12g#\J	.	.
.	4GG#\	.	12b/L	.	.
.	.	.	12a#X/	.	.
.	.	.	12an/J	1	.
=27	=27	=27	=27	=27	=27
*	*	*	*^	*	*
4r	(1AAA	.	2.g#/	12r	4	.
.	.	.	.	12B#X\L	1	.
.	.	.	.	12c#\J	2	.
4EE/	.	.	.	12d\L	1	.
.	.	.	.	12d#X\	2	.
.	.	.	.	12e\J	1	.
4C#/	.	.	.	12f#\L	3	.
.	.	.	.	12fn\	2	.
.	.	.	.	12e\J	1	.
4DD#X/	.	.	4f##X/	12d#\L	5	.
.	.	.	.	12dn\	.	.
.	.	.	.	12c#\J	.	.
*v	*v	*	*	*	*	*
!!LO:LB:g=original
=28	=28	=28	=28	=28	=28
4DD#X 4GGG#/)	.	12g#/L)	8B#X\	4	.
.	.	(12G#/	.	2	.
.	.	.	8ryy	.	1
.	.	12B#/J	.	1	<
4r	.	12d#X/L	2.ryy	2	.
.	.	12f##X/	.	3	.
.	.	12g#/J	.	4	.
2r	.	12b#X/L	.	1	.
.	.	12dd#X/	.	2	.
.	.	12ff##X/J	.	3	.
.	.	12gg#/L	.	4	.
.	.	12bb#X/	.	1	.
.	.	12ddd#X/J	.	2	.
*	*	*v	*v	*	*
=29	=29	=29	=29	=29
1r	.	12ggg#\L	4	[ >
.	.	12fff#\	3	.
.	.	12eee\J	1	.
.	.	12ddd#X\L	4	.
.	.	12ccc#\	.	.
.	.	12bb#X\J	.	.
.	.	12aa\L	.	.
.	.	12gg#\	3	.
.	.	12bb#\J	5	.
.	.	12aa\L	4	.
.	.	12dd#X\	1	.
.	.	(12gg#\J)	2	]]
=30	=30	=30	=30	=30
*^	*	*	*	*
4r	2G# 2E 2C#\	.	12eee\L	5	fp
.	.	.	12ccc#\	4	.
.	.	.	12gg#\J	.	.
4e/	.	.	12ee\L	.	.
.	.	.	12cc#\	4	.
.	.	.	12g#\J	.	.
4d#X/	4F#\	.	12f##X/L	1	.
.	.	.	12g#/	.	.
.	.	.	12cc#/J	.	.
4c#/	4E\	.	12ee\L	1	.
.	.	.	12ccc#\	4	.
.	.	.	12gg#\J	.	.
!!LO:LB:g=original
=31	=31	=31	=31	=31	=31
*ped	*	*	*	*	*
2B#X/	1GG#	.	12ddd#X\L	5	.
.	.	.	12bb#X\	4	.
.	.	.	12gg#\J	2	.
.	.	.	12dd#X\L	1	.
.	.	.	12b#X\	4	.
.	.	.	12g#\J	.	.
2D#X/	.	.	12f##X/L	1	.
.	.	.	12g#/	2	.
.	.	.	12b#/J	4	.
.	.	.	12dd#\L	1	.
.	.	.	12bb#\	.	.
.	.	.	12gg#\J	.	.
*Xped	*	*	*	*	*
=32	=32	=32	=32	=32	=32
4r	2F# 2D#X 2BBn\	.	(12ddd#X\L)	5	fp
.	.	.	12bbn\	4	.
.	.	.	12ff#\J	2	.
4d#X/	.	.	12dd#X\L	1	.
.	.	.	12bn\	4	.
.	.	.	12f#\J	.	.
4c#/	4E\	.	12e#X/L	1	.
.	.	.	12f#/	.	.
.	.	.	12b/J	4	.
4B/	4D#\	.	12dd#\L	1	.
.	.	.	12bb\	4	.
.	.	.	12ff#\J	.	.
=33	=33	=33	=33	=33	=33
*ped	*	*	*	*	*
2A#X/	1FF#	.	12ccc#\L	5	.
.	.	.	12aa#X\	4	.
.	.	.	12ff#\J	.	.
.	.	.	12cc#/L	1	.
.	.	.	12a#X/	3	.
.	.	.	12f#/J	2	.
2C#/	.	.	12e#X/L	1	.
.	.	.	12f#/	2	.
.	.	.	12a#/J	3	.
.	.	.	12cc#\L	1	.
.	.	.	12aa#\	4	.
.	.	.	12ff#\J	.	.
!!LO:LB:g=original
*Xped	*	*	*	*	*
=34	=34	=34	=34	=34	=34
4r	2E 2C# 2AAn\	.	(12ccc#\L)	5	fp
.	.	.	12aan\	4	.
.	.	.	12ee\J	.	.
4c#/	.	.	12cc#/L	1	.
.	.	.	12a/	4	.
.	.	.	12e/J	2	.
4B/	4Dn\	.	12d#X/L	1	.
.	.	.	12e/	2	.
.	.	.	12a/J	4	.
4A/	4C#\	.	12cc#\L	1	.
.	.	.	12aa\	4	.
.	.	.	12ee\J	.	.
=35	=35	=35	=35	=35	=35
2G#/	1EE	.	12bb\L	5	.
.	.	.	12gg#\	4	.
.	.	.	12ee\J	2	.
.	.	.	12b/L	1	.
.	.	.	12g#/	3	.
.	.	.	12e/J	2	.
2BB/	.	.	12d#X/L	1	.
.	.	.	12e/	2	.
.	.	.	12g#/J	3	.
.	.	.	12b\L	1	.
.	.	.	12gg#\	4	.
.	.	.	(12ee\J)	.	.
=36	=36	=36	=36	=36	=36
4r	2Dn 2BB 2GGn\	.	12bb\L	5	fp
.	.	.	12ggn\	4	.
.	.	.	12ddn\J	2	.
4B/	.	.	12b/L	1	.
.	.	.	12gn/	4	.
.	.	.	12dn/J	.	.
4A/	4Cn\	.	12c#X/L	1	.
.	.	.	12d/	2	.
.	.	.	12g/J	4	.
4Gn/	4BB\	.	12b\L	1	.
.	.	.	12gg\	4	.
.	.	.	12dd\J	.	.
!!LO:PB:g=original
=37	=37	=37	=37	=37	=37
4F#/	1DD	.	12aa\L	.	.
.	.	.	12ff#\	4	.
.	.	.	12dd\J	.	.
4FF#/	.	.	12a/L	.	.
.	.	.	12f#/	3	.
.	.	.	12d/J	2	.
4AA/	.	.	12c#X/L	1	.
.	.	.	12d/	.	.
.	.	.	12f#/J	3	.
4FF#/	.	.	12a\L	1	.
.	.	.	12ff#\	.	.
.	.	.	12dd\J	.	.
=38	=38	=38	=38	=38	=38
4r	1DD	.	(12aa#X\L)	5	.
.	.	.	12ff#\	4	.
.	.	.	12dd\J	.	.
!	!	!	!LO:TX:t=cresc.:dur=12q:ext=ud:problem:text with extention lines	!	!
4FF#/	.	.	12a#X/L	1	<
.	.	.	12f#/	4	.
.	.	.	12d/J	.	.
4F#/	.	.	12c#/L	1	.
.	.	.	12d/	2	.
.	.	.	12f#/J	.	.
4FF#/	.	.	12a#\L	1	.
.	.	.	12ff#\	.	.
.	.	.	12dd\J	.	.
=39	=39	=39	=39	=39	=39
4r	1DD	.	(12bb\L)	5	.
.	.	.	12ff#\	3	.
.	.	.	12b\J	1	.
4FF#/	.	.	12b/L	5	.
.	.	.	12f#/	.	.
.	.	.	12B/J	.	.
4F#/	.	.	12f#/L	.	.
.	.	.	12b/	5	.
.	.	.	12b/J	1	.
4FF#/	.	.	12ff#\L	.	.
.	.	.	12bb\	.	.
.	.	.	12b\J	.	.
!!LO:LB:g=original
=40	=40	=40	=40	=40	=40
4r	1DD	.	(12bb#X\L)	5	.
.	.	.	12ff#\	2	.
.	.	.	12b#X\J	1	.
4GG#X/	.	.	12b#/L	5	.
.	.	.	12f#/	.	.
.	.	.	12B#X/J	.	.
4F#/	.	.	12f#/L	.	.
.	.	.	12b#/	.	.
.	.	.	12b#/J	.	.
4GG#/	.	.	12ff#\L	.	.
.	.	.	12bb#\	.	.
.	.	.	12b#\J	.	[[
*v	*v	*	*	*	*
=41	=41	=41	=41	=41
*ped	*	*	*	*
4E#X 4GG# 4CC#/	.	(12ccc#L 12gg#X\)	5 3	f
.	.	12e\	.	.
.	.	12gg#\J	.	.
4r	.	12ccc#\L	5	.
*	*	*8va	*	*
.	.	12ccc#\	1	.
*Xped	*	*	*	*
.	.	12cccc#\J	4	.
*ped	*	*	*	*
[2Dn [2FF# [2BBB/	.	12ddddL 12fff#\	5 2	.
.	.	12bbb\	4	.
.	.	12ggg#\J	3	.
.	.	12fff#\L	2	.
.	.	12ddd\	1	.
.	.	12bb\J	4	.
*	*	*X8va	*	*
=42	=42	=42	=42	=42
2D] 2FF#] 2BBB/]	.	12gg#\L	3	.
.	.	12ff#\	2	.
.	.	12dd\J	1	.
.	.	12b/L	4	.
.	.	12g#/	3	.
*Xped	*	*	*	*
.	.	12f#/J	2	.
*ped	*	*	*	*
2D 2GG#X 2DD/	.	12B/L	1	.
.	.	12f#/	3	.
.	.	12b/J	5	.
.	.	12b\L	1	.
.	.	12ff#\	3	.
.	.	12bb\J	5	.
!!LO:LB:g=original
=43	=43	=43	=43	=43
*ped	*	*	*	*
4C# 4GG# 4CC#/	.	(12ccc#L 12ee#X\)	5 2	.
.	.	12cc#\	1	.
.	.	12gg#\J	3	.
4r	.	12ccc#\L	5	.
*	*	*8va	*	*
.	.	12ccc#\	1	.
*Xped	*	*	*	*
.	.	12cccc#\J	4	.
*ped	*	*	*	*
[2D [2FF# [2BBB/	.	12ddddL 12fff#\	5 2	.
.	.	12bbb\	.	.
.	.	12ggg#\J	.	.
.	.	12fff#\L	.	.
.	.	12ddd\	.	.
.	.	12bb\J	.	.
*	*	*X8va	*	*
=44	=44	=44	=44	=44
2D] 2FF#] 2BBB/]	.	12gg#\L	.	.
.	.	12ff#\	.	.
.	.	12dd\J	.	.
.	.	12b/L	.	.
.	.	12g#/	.	.
*Xped	*	*	*	*
.	.	12f#/J	.	.
*ped	*	*	*	*
2D 2GG# 2DD/	.	12B/L	.	.
.	.	12f#/	.	.
.	.	12b/J	.	.
.	.	12b\L	.	.
.	.	12ff#\	.	.
.	.	12bb\J	.	.
=45	=45	=45	=45	=45
*Xped	*	*	*	*
12CC#^/L	.	(12gg#L 12ee#X^\)	.	ff
12GG#/	.	12ccc#\	.	.
12C#/J	.	12cc#\J	.	.
12DDn^/L	.	12gg#L 12ff#^\	.	.
12GG#/	.	12bb#X\	.	.
12D/J	.	12b#X\J	.	.
12CC#^/L	.	12gg#L 12ee#^\	.	.
12GG#/	.	12ccc#\	.	.
12C#/J	.	12cc#\J	.	.
12DD^/L	.	12gg#L 12ff#^\	.	.
12GG#/	.	12bb#\	.	.
12D/J	.	12b#\J	.	.
!!LO:LB:g=original
=46	=46	=46	=46	=46
12CC#^/L	.	12gg#L 12ee#X^\	.	.
12GG#/	.	12ccc#\	.	.
12C#/J	.	12cc#\J	.	.
12DD^/L	.	12gg#L 12ff#^\	.	.
12GG#/	.	12bb#X\	.	.
12D/J	.	12b#X\J	.	.
12CC#^/L	.	12gg#L 12ee#^\	.	.
12GG#/	.	12ccc#\	.	.
12C#/J	.	12cc#\J	.	.
12DD^/L	.	12gg#L 12ff#^\	.	.
12GG#/	.	12bb#\	.	.
12D/J	.	12b#\J	.	.
=47	=47	=47	=47	=47
*ped	*	*	*	*
8C# 8GG# 8CC#'/	.	8ccc# 8gg# 8ee#X'\)	.	.
8r	.	8r	.	.
12een\L	3	(12ccc#/L	4	.
12ggn\	1	12bb-X/	2	.
12ee\J	3	12ccc#/J	4	.
12ee-X\L	4	12cccn/L	3	.
12ff#\	1	12aa/	1	.
12ee-\J	3	12ccc/J	4	.
12dd\L	4	12bbn/L	3	.
12ffn\	1	12aa-X/	1	.
12dd\J	3	12bb/J	4	.
=48	=48	=48	=48	=48
12dd-X\L	4	12bb-X/L	3	.
12ee\	1	12ggn/	1	.
12dd-\J	3	12bb-/J	4	.
12ccn\L	4	12aa/L	3	.
12ee-X\	1	12ff#/	1	.
12cc\J	3	12aa/J	4	.
12bn\L	4	12aa-X/L	3	.
12ddn\	1	12ffn/	1	.
12b\J	3	12aa-/J	4	.
12b-X\L	4	12ggn/L	3	.
12dd-X\	1	12een/	1	.
12b-\J	3	12gg/J	4	.
!!LO:LB:g=original
=49	=49	=49	=49	=49
12a\L	.	12gg-X/L	.	.
12ccn\	.	12ee-X/	.	.
12a\J	.	12gg-/J	.	.
!	!	!LO:TX:t=de-cre-scen-do=16qe:ext=ud:problem:text with extention lines	!	!
12g#\L	.	12ffn/L	.	>
12b\	.	12dd/	.	.
12g#\J	.	12ff/J	.	.
12gn\L	.	12een/L	.	.
12b-X\	.	12dd-X/	.	.
12g\J	.	12ee/J	.	.
12f#\L	.	12ee-X/L	.	.
12a\	.	12ccn/	.	.
12f#\J	.	12ee-/J	.	.
*Xped	*	*	*	*
=50	=50	=50	=50	=50
12fn\L	.	12dd/L	.	.
12g#\	.	12b/	.	.
12f\J	.	12dd/J	.	.
12e\L	.	12dd-X/L	.	.
12gn\	.	12b-X/	.	.
12e\J	.	12dd-/J	.	.
12e-X\L	.	12ccn/L	.	.
12f\	.	12a/	.	.
12e-\J	.	12cc/J	.	.
12d\L	.	12bn/L	.	.
12fn\	.	12a-X/	.	.
12d\J	.	12b/J	.	.
=51	=51	=51	=51	=51
12c#\L	.	12b-X/L	.	.
12e\	.	12gn/	.	.
12c#\J	.	12b-/J	.	.
12cn\L	.	12a/L	.	.
12e-X\	.	12f#/	.	.
12c\J	.	12a/J	.	.
12Bn\L	.	12g#X/L	.	.
12d\	.	12fn/	.	.
12B\J	.	12g#/J	.	.
12B-X\L	.	12gn/L	.	.
12d-X\	.	12e/	.	.
12B-\J	.	12g/J	.	.
!!LO:LB:g=original
=52	=52	=52	=52	=52
12A\L	.	12f#/L	.	.
12cn\	.	12e-X/	.	.
12A\J	.	12f#/J	.	.
12G#X\L	.	12fn/L	.	.
12B\	.	12d/	.	.
12G#\J	.	12f/J	.	.
12Gn\L	.	12en/L	.	.
12B-X\	.	12c#/	.	]
12G\J	.	12e/J	.	.
12F#\L	.	12d#X/L	.	.
12A\	.	12B#X/	.	.
12F#\J	.	12d#/J	.	.
=53	=53	=53	=53	=53
8G# 8E#X\	.	(12c#/L)	3	p
.	.	12d#X/	4	.
8r	.	.	.	.
.	.	12c#/J	3	.
4r	.	12B#X/L	1	.
.	.	12c#/	2	<
.	.	12d#/J	.	.
2r	.	12e/L	1	.
.	.	12e#X/	2	.
.	.	12f#/J	3	.
.	.	12f##X/L	1	.
.	.	12g#/	.	.
.	.	12a/J	.	[[
=54	=54	=54	=54	=54
1r	.	12a#X/L	4	.
.	.	12b/	1	.
.	.	12b#X/J	.	.
.	.	12cc#\L	.	>
.	.	12b#\	.	.
.	.	12dd\J	.	.
.	.	12cc#\L	.	.
.	.	12b#\	.	.
.	.	12dd\J	.	.
.	.	12cc#\L	.	.
.	.	12b#\	.	.
.	.	(12dd\J)	.	.
!!LO:PB:g=original
=55	=55	=55	=55	=55
*^	*	*	*	*
4r	[1FF#	.	12b#X\L	.	p
.	.	.	12cc#\	.	.
.	.	.	12dd\J	.	.
(4C#/	.	.	12cc#\L	.	.
.	.	.	12bn\	.	.
.	.	.	12a\J	.	.
4F#/	.	.	12g#/L	.	.
.	.	.	12b/	.	.
.	.	.	12a/J	.	.
4G#/	.	.	12g#/L	.	.
.	.	.	12a/	.	.
.	.	.	12e#X/J	.	.
=56	=56	=56	=56	=56	=56
2A/	1FF#]	.	12f#/L	.	.
.	.	.	12g#/	.	.
.	.	.	12f#/J	.	.
.	.	.	12e#X/L	.	<
.	.	.	12f#/	.	.
.	.	.	12g#/J	.	.
2F#/)	.	.	12a/L	.	.
.	.	.	12a#X/	.	.
.	.	.	12b/J	.	.
.	.	.	12b#X\L	.	.
.	.	.	12cc#\	.	.
.	.	.	12ff#\J	.	[[
=57	=57	=57	=57	=57	=57
.	(8qFF#/	.	.	.	.
(4B/	[1F#)	.	12ee\L	.	.
.	.	.	12dd\	.	.
.	.	.	12cc#\J	.	.
4d/	.	.	12dd\L	.	.
.	.	.	12dd#X\	.	.
.	.	.	12ee\J	.	.
4c#/	.	.	12ee#X\L	.	.
.	.	.	12gg#\	.	.
.	.	.	12ff#\J	.	.
4B/	.	.	12ee#\L	.	.
.	.	.	12ff#\	.	.
.	.	.	12ddn\J	.	.
!!LO:LB:g=original
=58	=58	=58	=58	=58	=58
1A)	2F#\]	.	12cc#\L	.	.
.	.	.	12b#X\	.	.
.	.	.	12cc#\J	.	.
.	.	.	12aa\L	.	>
.	.	.	12gg#\	.	.
.	.	.	12ff#\J	.	.
.	2r	.	12cc#\L	.	.
.	.	.	12ccn\	.	.
.	.	.	12bn\J	.	.
.	.	.	12a/L	.	.
.	.	.	12g#/	.	.
.	.	.	12f#/J	.	]]
=59	=59	=59	=59	=59	=59
*ped	*	*	*	*	*
8CC#/	4ryy	.	(12e#X/L)	.	.
.	.	.	12dd/	.	.
8r	.	.	.	.	.
.	.	.	12cc#/J	.	.
(4G#/	4C#\	.	12b#X\L	.	.
.	.	.	12dd\	.	.
.	.	.	12cc#\J	.	.
4c#/	2E#X\	.	12gg#\L	.	.
.	.	.	12b#\	.	.
.	.	.	12cc#\J	.	.
4Bn/	.	.	12een\L	.	.
.	.	.	12dd\	.	.
.	.	.	12cc#\J	.	.
*Xped	*	*	*	*	*
=60	=60	=60	=60	=60	=60
2A/	1FF#	.	12f#\L	.	.
.	.	.	12cc#\	.	.
.	.	.	12ee\J	.	.
.	.	.	12dd\L	.	.
.	.	.	12cc#\	.	.
.	.	.	12b#X\J	.	.
4AA/)	.	.	12cc#\L	.	.
.	.	.	12aa\	.	.
.	.	.	12gg#\J	.	.
(4C#/	.	.	12ff#\L	.	.
.	.	.	12cc#\	.	.
.	.	.	12a\J	.	.
!!LO:LB:g=original
=61	=61	=61	=61	=61	=61
.	.	.	16qqg#/LL	.	.
.	.	.	16qqa/JJ	.	.
4E/	2.GG#\	.	12g#/L	.	.
.	.	.	12f##X/	.	.
.	.	.	12g#/J	.	.
4G#/	.	.	12ee\L	.	.
.	.	.	12dd#X\	.	.
.	.	.	12cc#\J	.	.
2F#/	.	.	12b#X\L	.	.
.	.	.	12aa\	.	.
.	.	.	12gg#\J	.	.
.	4BB#X\	.	12ff#X\L	.	.
.	.	.	12dd#X\	.	.
.	.	.	12ee\J	.	.
=62	=62	=62	=62	=62	=62
4E/)	4C#\	.	12cc#\L	.	.
.	.	.	12b#X\	.	.
.	.	.	12dd#X\J	.	.
4r	4ryy	.	12cc#\L	.	>
.	.	.	12b#\	.	.
.	.	.	12dd#\J	.	.
2r	2ryy	.	12cc#\L	.	.
.	.	.	12b#\	.	.
.	.	.	12ddn\J	.	.
.	.	.	12cc#\L	.	.
.	.	.	12b#\	.	.
.	.	.	(12dd\J)	.	.
=63	=63	=63	=63	=63	=63
4r	[1FF#	.	12b#X\L	.	.
.	.	.	12cc#\	.	.
.	.	.	12dd\J	.	.
(4C#/	.	.	12cc#\L	.	.
.	.	.	12bn\	.	.
.	.	.	12a\J	.	.
4F#/	.	.	12g#/L	.	.
.	.	.	12b/	.	.
.	.	.	12a/J	.	.
4G#/	.	.	12g#/L	.	.
.	.	.	12a/	.	.
.	.	.	12e#X/J	.	.
!!LO:LB:g=original
=64	=64	=64	=64	=64	=64
2A/	1FF#]	.	12f#/L	.	.
.	.	.	12g#/	.	.
.	.	.	12f#/J	.	.
.	.	.	12e#X/L	.	.
.	.	.	12f#/	.	.
.	.	.	12g#/J	.	.
2F#/)	.	.	12a/L	.	<
.	.	.	12a#X/	.	.
.	.	.	12b/J	.	.
.	.	.	12b#X\L	.	.
.	.	.	12cc#\	.	.
.	.	.	12ff#\J	.	[[
=65	=65	=65	=65	=65	=65
(4Gn/	1FF#	.	12een\L	1	.
.	.	.	12eee\	5	.
.	.	.	12dddn\J	.	.
4F#/	.	.	12ccc#\L	.	.
.	.	.	12bb\	1	.
.	.	.	12aa#X\J	2	.
4E/	.	.	12ccc#\L	4	.
.	.	.	12bb\	.	.
.	.	.	12aa#\J	.	.
8D/L	.	.	12ggn\L	1	.
.	.	.	12ff#\	3	.
8C#/J	.	.	.	2	.
.	.	.	12ee\J	.	.
=66	=66	=66	=66	=66	=66
2Gn^/	1BB	.	12eeM\L	143	>
.	.	.	12dd#X\	2	.
.	.	.	12ee\J	1	.
.	.	.	12ee#X\L	3	.
.	.	.	12ff#\	4	.
.	.	.	12cc#\J	2	.
4F#/)	.	.	12een\L	4	.
.	.	.	12ddn\	.	.
.	.	.	12cc#\J	.	.
(4d/	.	.	12b/L	1	.
.	.	.	12a#X/	2	.
.	.	.	12b/J	3	]]
!!LO:LB:g=original
=67	=67	=67	=67	=67	=67
4G#X/	1C#	.	(12e#X\L)	1	.
.	.	.	12dd\	4	.
.	.	.	12cc#\J	3	.
4E#X/	.	.	12b#X\L	1	.
.	.	.	12dd\	3	.
.	.	.	12cc#\J	2	.
4Bn/	.	.	12gg#\L	4	.
.	.	.	12ff#\	3	.
.	.	.	12ee#X\J	2	.
8A/L	.	.	12dd\L	1	.
.	.	.	12cc#\	3	.
8G#/J	.	.	.	.	.
.	.	.	12bn\J	.	.
=68	=68	=68	=68	=68	=68
2F#/)	2D\	.	12a\L	1	.
.	.	.	12dd\	3	.
.	.	.	12cc#\J	.	.
.	.	.	12een\L	4	.
.	.	.	12dd\	1	.
.	.	.	12ff#\J	3	.
2d 2BB\	2ryy	.	12ee#X\L	2	>
.	.	.	12gg#\	4	.
.	.	.	12ff#\J	3	.
.	.	.	12dd\L	2	.
.	.	.	12b\	1	.
.	.	.	12g#\J	2	.
*v	*v	*	*	*	*
=69	=69	=69	=69	=69
2c# 2F# 2C#\	.	12a/L	1	.
.	.	12b#X/	2	.
.	.	12cc#/J	3	.
!	!	!LO:TX:b:t=rallen_tan_do	!	!
!	!	!LO:TX:t=rallen-tan-do:dur=4q:ext=ud:problem:text with extention lines	!	!
.	.	12een\L	5	.
.	.	12dd\	4	.
.	.	12cc#\J	3	.
*ped	*	*	*	*
4CC#/	.	12g#/L	1	.
.	.	12b#/	2	.
.	.	12cc#/J	3	.
4Bn 4E#X 4C#\	.	12een\L	5	.
.	.	12dd\	4	.
.	.	12cc#\J	3	.
*Xped	*	*	*	*
!!LO:LB:g=original
=70	=70	=70	=70	=70
!	!	!LO:TX:a:t=a tempo	!	!
12F#L 12FF#'\	.	12ff#L 12f#'\)	.	ff
12fn 12Fn'\	.	12fffn 12ffn'\	.	.
12eJ 12E'\	.	12eeeJ 12ee'\	.	.
12e-XL 12E-X'\	.	12eee-XL 12ee-X'\	.	.
12d 12D'\	.	12ddd 12dd'\	.	.
12c#J 12C#'\	.	12ccc#J 12cc#'\	.	.
12cnL 12Cn'\	.	12cccnL 12ccn'\	.	.
12B 12BB'\	.	12bb 12b'\	.	.
12B-XJ 12BB-X'\	.	12bb-XJ 12b-X'\	.	.
12AL 12AA'\	.	12aaL 12a'\	.	.
12G# 12GG#'\	.	12gg# 12g#'\	.	.
12GnJ 12GGn'\	.	12ggnJ 12gn'\	.	.
=71	=71	=71	=71	=71
12F#L 12FF#'/	.	12ff#L 12f#'/	.	.
12Fn 12FFn'/	.	12ffn 12fn'/	.	.
12EJ 12EE'/	.	12eeJ 12e'/	.	.
12E-XL 12EE-X'/	.	12ee-XL 12e-X'/	.	.
12D 12DD'/	.	12dd 12d'/	.	.
12C#J 12CC#'/	.	12cc#J 12c#'/	.	.
12CnL 12CCn'/	.	12ccnL 12cn'/	.	.
12BB 12BBB'/	.	12b 12B'/	.	.
12BB-XJ 12BBB-X'/	.	12b-XJ 12B-X'/	.	.
12AAL 12AAA'/	.	12aL 12A'/	.	.
12GG# 12GGG#'/	.	12g# 12G#'/	.	.
12GGnJ 12GGGn'/	.	12gnJ 12Gn'/	.	.
=72	=72	=72	=72	=72
!	!	!LO:TX:a:t=Adagio.	!	!
2FF# 2FFF#/	.	2f# 2F#/	.	.
2D 2FF# 2BBB/	.	4..f# 4..d 4..B 4..F#/	.	.
.	.	16g#X 16G#X/	.	.
=73	=73	=73	=73	=73
1FF# 1CC# 1FFF#;	.	1a#X 1f# 1c# 1A#X;	.	.
==	==	==	==	==
*-	*-	*-	*-	*-
!!!system-decoration: [(s1,s2)]
!!!ENC: Berenika Jozajtis
!!!END: 2022-07-24
!!!ENC: Urszula Świątek
!!!END: 2022-08-18
